icons/solid/library.svg

<svg width="24" height="24" viewBox="0 0 24 24" fill="none" xmlns="http://www.w3.org/2000/svg">
<path fill-rule="evenodd" clip-rule="evenodd" d="M11.5144 3.12584C11.8164 2.95805 12.1836 2.95805 12.4856 3.12584L21.4856 8.12584C21.884 8.34714 22.0823 8.80974 21.968 9.25084C21.8537 9.69195 21.4557 10 21 10H3C2.54433 10 2.14628 9.69195 2.03197 9.25084C1.91767 8.80974 2.11603 8.34714 2.51436 8.12584L11.5144 3.12584ZM3 11V19C2.44772 19 2 19.4477 2 20C2 20.5523 2.44772 21 3 21H21C21.5523 21 22 20.5523 22 20C22 19.4477 21.5523 19 21 19V11H3ZM8 13C8.55228 13 9 13.4477 9 14V17C9 17.5523 8.55228 18 8 18C7.44772 18 7 17.5523 7 17V14C7 13.4477 7.44772 13 8 13ZM12 13C12.5523 13 13 13.4477 13 14V17C13 17.5523 12.5523 18 12 18C11.4477 18 11 17.5523 11 17V14C11 13.4477 11.4477 13 12 13ZM16 13C16.5523 13 17 13.4477 17 14V17C17 17.5523 16.5523 18 16 18C15.4477 18 15 17.5523 15 17V14C15 13.4477 15.4477 13 16 13Z" fill="currentColor"/>
</svg>

<svg width="24" height="24" fill="none" xmlns="http://www.w3.org/2000/svg"><path fill-rule="evenodd" clip-rule="evenodd" d="M11.514 3.126a1 1 0 01.972 0l9 5A1 1 0 0121 10H3a1 1 0 01-.486-1.874l9-5zM3 11v8a1 1 0 100 2h18a1 1 0 100-2v-8H3zm5 2a1 1 0 011 1v3a1 1 0 11-2 0v-3a1 1 0 011-1zm4 0a1 1 0 011 1v3a1 1 0 11-2 0v-3a1 1 0 011-1zm4 0a1 1 0 011 1v3a1 1 0 11-2 0v-3a1 1 0 011-1z" fill="currentColor"/></svg>
